assets/img/svg/paymentip.svg

<svg width="36" height="36" viewBox="0 0 36 36" fill="none" xmlns="http://www.w3.org/2000/svg">
<g clip-path="url(#clip0_938_14812)">
<path d="M18.5488 8.39411C15.389 8.42779 15.9128 10.0117 15.3578 10.2152C13.734 10.7699 13.7746 13.1158 13.8484 13.0289C14.5169 13.0689 14.9343 12.7588 15.3742 12.2742C15.8141 11.7896 16.2316 11.1358 16.8016 10.5925C16.9468 10.4758 17.0506 10.5461 17.1789 10.6088C18.3443 12.0124 21.0837 12.5746 23.159 12.594C22.8647 10.4506 21.8021 8.35948 18.5488 8.39411ZM16.9984 11.1585C16.57 11.6142 16.1979 12.1533 15.768 12.6269C15.1427 13.0475 14.4456 13.5531 13.8156 13.5539C13.4393 13.5457 13.2496 14.0082 13.2496 14.4316C13.2496 14.9566 13.7746 15.7113 14.0371 15.7113V15.6457C14.601 18.0188 16.2293 20.442 18.5406 20.4691C20.8399 20.496 22.5019 18.0566 23.0605 15.6785C23.337 15.5339 23.7496 14.8949 23.7496 14.4316C23.7496 14.0327 23.5834 13.6034 23.2492 13.5621C23.2428 13.4154 23.2287 13.2676 23.2164 13.1191C21.1504 13.1118 18.4475 12.6438 16.9984 11.1585ZM14.9559 20.4773C14.4254 20.6919 13.8757 20.8946 13.3316 21.0925L15.2594 23.98C15.3937 24.1804 15.3647 24.4743 15.1937 24.6445L14.4801 25.3582L16.6785 28.6066H17.3512L14.9559 20.4773ZM22.0352 20.4938L19.648 28.6067H20.3207L22.5191 25.3583L21.8055 24.6446C21.6346 24.4744 21.6055 24.1805 21.7398 23.9801L23.643 21.1255C23.1281 20.9164 22.6068 20.7081 22.0352 20.4938ZM20.8129 20.9122C19.6729 22.2606 17.4882 22.331 16.2437 21.1173L18.4422 28.6067H18.557L20.8129 20.9122ZM12.3227 21.4618C11.4557 21.7794 10.7204 22.0679 10.3621 22.3067C9.89339 22.6766 9.44336 23.357 9.18086 24.1442L8.13086 28.6067H15.3988L13.3645 25.6536C13.2065 25.4538 13.2252 25.1362 13.4055 24.9563L14.152 24.2098L12.3227 21.4618ZM24.6273 21.5356L22.8473 24.2098L23.5937 24.9563C23.774 25.1362 23.7927 25.4538 23.6348 25.6536L21.6004 28.6067H28.8684L27.8184 24.1442C27.5559 23.357 26.8996 22.5691 26.3746 22.3067C26.1277 22.1833 25.4699 21.8924 24.6273 21.5356Z" fill="#1C62AE"/>
</g>
<defs>
<clipPath id="clip0_938_14812">
<rect width="21" height="21" fill="white" transform="translate(8 8)"/>
</clipPath>
</defs>
</svg>

<svg width="36" height="36" fill="none" xmlns="http://www.w3.org/2000/svg"><g clip-path="url(#clip0_938_14812)"><path d="M18.549 8.394c-3.16.034-2.636 1.618-3.191 1.821-1.624.555-1.583 2.9-1.51 2.814.669.04 1.086-.27 1.526-.755.44-.484.858-1.138 1.428-1.681.145-.117.249-.047.377.016 1.165 1.403 3.905 1.966 5.98 1.985-.294-2.143-1.357-4.235-4.61-4.2zm-1.55 2.764c-.429.456-.801.995-1.231 1.469-.625.42-1.322.926-1.952.927-.377-.008-.566.454-.566.878 0 .525.525 1.28.787 1.28v-.066c.564 2.373 2.192 4.796 4.504 4.823 2.299.027 3.96-2.412 4.52-4.79.276-.145.689-.784.689-1.247 0-.4-.167-.829-.5-.87-.007-.147-.021-.294-.034-.443-2.066-.007-4.768-.475-6.218-1.96zm-2.043 9.32c-.53.214-1.08.417-1.624.614l1.927 2.888c.135.2.106.494-.065.665l-.714.713 2.198 3.249h.673l-2.395-8.13zm7.08.016l-2.388 8.113h.673l2.198-3.249-.713-.713a.542.542 0 01-.066-.665l1.903-2.855a62.548 62.548 0 00-1.608-.631zm-1.223.418c-1.14 1.349-3.325 1.419-4.57.205l2.2 7.49h.114l2.256-7.695zm-8.49.55c-.867.317-1.603.606-1.96.845-.47.37-.92 1.05-1.182 1.837l-1.05 4.463h7.268l-2.034-2.953a.543.543 0 01.04-.698l.747-.746-1.83-2.748zm12.304.074l-1.78 2.674.747.746c.18.18.199.498.04.698L21.6 28.607h7.268l-1.05-4.463c-.262-.787-.918-1.575-1.443-1.837a42.236 42.236 0 00-1.748-.771z" fill="#1C62AE"/></g><defs><clipPath id="clip0_938_14812"><path fill="#fff" transform="translate(8 8)" d="M0 0h21v21H0z"/></clipPath></defs></svg>
